X:4933
L:1/8
M:4/4
K:C
 .abc ||[M:6/8][K:D] (3(TE/F/G).E FDD | FDd cAG | (E/F/G).E FDD | FDd (A2 G) | (E/F/G).E FDD | 
 FDd cde |{g} fed efg |{g} fed cAG ::[K:G] Ecc Add | Acc cAG | Ecc Add | edc (TA2 G) | Ecc Add | 
 Acc cAG | Ecc efg | edc (TA2 G) :|

